assets/business-color/BusinessColor38.svg

<svg xmlns="http://www.w3.org/2000/svg" id="Layer_1" x="0" y="0" version="1.1" viewBox="0 0 256 256" xml:space="preserve"><style>.st0{fill:#dbfdff}.st3{fill:#48386a}.st4{fill:#9feaff}.st5{fill:#febe7f}.st6{fill:#ff8584}</style><path d="M234.6 120.9c4.8-7.7 7.6-16.9 7.6-26.7 0-27.9-22.6-50.5-50.5-50.5-14.1 0-26.9 5.8-36 15.1-8.7-6.9-19.7-11-31.7-11-4.5 0-8.9.6-13.1 1.7-8.9-14.4-24.8-24-43-24C40 25.5 17.4 48.1 17.4 76c0 4.8.7 9.4 1.9 13.8-2.1 5.5-3.2 11.5-3.2 17.7 0 15.9 7.4 30.1 18.9 39.4-12.8 9.2-21.2 24.2-21.2 41.1 0 27.9 22.6 50.5 50.5 50.5 23.4 0 43-15.9 48.8-37.5 7.2 3.9 15.5 6.2 24.2 6.2 1.3 0 2.5-.1 3.8-.2 7.5 18.4 25.6 31.4 46.8 31.4 27.9 0 50.5-22.6 50.5-50.5 0-8.6-2.2-16.7-6-23.8 3.8-7.1 6-15.2 6-23.8.1-6.8-1.3-13.4-3.8-19.4z" class="st0"/><path fill="#ffffed" d="M40 142.2V3.8h152.3v223.3H40v-72z"/><path fill="#fff" d="M217.4 72v180.2H65.1v-12.6h139.8V28.9h12.5v35z"/><path d="M40 151.8c-.6 0-1-.4-1-1v-2.7c0-.6.4-1 1-1s1 .4 1 1v2.7c0 .6-.5 1-1 1z" class="st3"/><path d="M192.3 228.1H40c-.6 0-1-.4-1-1v-72c0-.6.4-1 1-1s1 .4 1 1v71h150.3V4.8H41v137.4c0 .6-.4 1-1 1s-1-.4-1-1V3.8c0-.6.4-1 1-1h152.3c.6 0 1 .4 1 1v223.3c0 .6-.4 1-1 1z" class="st3"/><path d="M207.9 16.4v223.2H55.5v-12.5h139.8V16.4z" class="st0"/><path d="M204.9 240.6H52.5c-.6 0-1-.4-1-1v-12.5c0-.6.4-1 1-1h138.8V16.4c0-.6.4-1 1-1h12.5c.6 0 1 .4 1 1v223.3c.1.5-.4.9-.9.9zm-151.4-2h150.3V17.4h-10.5v209.8c0 .6-.4 1-1 1H53.5v10.4z" class="st3"/><path d="M217.4 72v180.2H65.1v-12.6h139.8V28.9h12.5v35z" class="st4"/><path d="M217.4 253.2H65.1c-.6 0-1-.4-1-1v-12.5c0-.6.4-1 1-1h138.8V28.9c0-.6.4-1 1-1h12.5c.6 0 1 .4 1 1v35c0 .6-.4 1-1 1s-1-.4-1-1v-34h-10.5v209.7c0 .6-.4 1-1 1H66.1v10.5h150.3V72c0-.6.4-1 1-1s1 .4 1 1v180.2c0 .5-.4 1-1 1zM181.6 39.4h-131c-.6 0-1-.4-1-1v-22c0-.6.4-1 1-1h131c.6 0 1 .4 1 1v22c0 .5-.4 1-1 1zm-130-2h129v-20h-129v20z" class="st3"/><path d="M135.1 21.5H179v11.6H59.2V21.5h67.9z" class="st4"/><path d="M113.4 57.1H125v119.8h-11.6z" class="st4" transform="rotate(90 119.168 117.007)"/><path d="M145.8 144.8h33.3V209h-54.4v-64.2h13z" class="st5"/><path d="M83.3 64.8c.7 1.6 1.1 3.3 1.1 5.2 0 7-5.7 12.8-12.8 12.8S58.9 77.1 58.9 70s5.7-12.8 12.8-12.8c3.2 0 6.1 1.2 8.3 3.1l3.3 4.5z" class="st6"/><path d="M176 33.6H56.2c-.3 0-.5-.2-.5-.5V21.5c0-.3.2-.5.5-.5h67.9c.3 0 .5.2.5.5s-.2.5-.5.5H56.7v10.6h118.8V22H132c-.3 0-.5-.2-.5-.5s.2-.5.5-.5h44c.3 0 .5.2.5.5v11.6c0 .3-.2.5-.5.5zM181.7 129h-131c-.6 0-1-.4-1-1v-22c0-.6.4-1 1-1h70.5c.6 0 1 .4 1 1s-.4 1-1 1H51.7v20h129v-20h-52c-.6 0-1-.4-1-1s.4-1 1-1h53c.6 0 1 .4 1 1v22c0 .6-.5 1-1 1z" class="st3"/><path d="M176.1 123.3H56.2c-.3 0-.5-.2-.5-.5v-11.6c0-.3.2-.5.5-.5H176c.3 0 .5.2.5.5v11.6c.1.3-.1.5-.4.5zm-119.4-1h118.8v-10.6H56.7v10.6zM181.7 215.2h-65.5c-.6 0-1-.4-1-1v-74.6c0-.6.4-1 1-1h65.5c.6 0 1 .4 1 1v51.6c0 .6-.4 1-1 1s-1-.4-1-1v-50.6h-63.5v72.6h63.5v-11c0-.6.4-1 1-1s1 .4 1 1v12c0 .6-.5 1-1 1z" class="st3"/><path d="M176.1 209.5h-54.3c-.3 0-.5-.2-.5-.5v-64.2c0-.3.2-.5.5-.5h13c.3 0 .5.2.5.5s-.2.5-.5.5h-12.5v63.2h53.3v-63.2h-32.8c-.3 0-.5-.2-.5-.5s.2-.5.5-.5h33.3c.3 0 .5.2.5.5V209c0 .2-.2.5-.5.5zM68.7 89c-2.9 0-5.6-.6-8.2-1.8-.5-.2-.7-.8-.5-1.3.2-.5.8-.7 1.3-.5 2.3 1.1 4.8 1.6 7.3 1.6 9.4 0 17-7.6 17-17s-7.6-17-17-17-17 7.6-17 17c0 4.7 1.9 9.1 5.3 12.3.4.4.4 1 0 1.4-.4.4-1 .4-1.4 0-3.8-3.6-5.9-8.5-5.9-13.7 0-10.5 8.5-19 19-19s19 8.5 19 19-8.5 19-18.9 19z" class="st3"/><path d="M68.7 83.3c-7.3 0-13.3-5.9-13.3-13.3s5.9-13.3 13.3-13.3c3.2 0 6.3 1.1 8.7 3.2.2.2.2.5.1.7-.2.2-.5.2-.7.1-2.2-1.9-5.1-3-8-3-6.8 0-12.3 5.5-12.3 12.3S62 82.3 68.8 82.3 80.9 76.8 80.9 70c0-1.7-.4-3.4-1.1-5-.1-.3 0-.5.3-.7.3-.1.5 0 .7.3.8 1.7 1.1 3.5 1.1 5.4 0 7.3-5.9 13.3-13.2 13.3zM181.7 53H99.1c-.6 0-1-.4-1-1s.4-1 1-1h82.6c.6 0 1 .4 1 1s-.5 1-1 1zM181.7 89H99.1c-.6 0-1-.4-1-1s.4-1 1-1h82.6c.6 0 1 .4 1 1s-.5 1-1 1zM181.7 71h-78.2c-.6 0-1-.4-1-1s.4-1 1-1h78.2c.6 0 1 .4 1 1s-.5 1-1 1zM99.3 140.1H50.7c-.3 0-.5-.2-.5-.5s.2-.5.5-.5h48.7c.3 0 .5.2.5.5s-.3.5-.6.5zM106.3 154.9H50.7c-.3 0-.5-.2-.5-.5s.2-.5.5-.5h55.6c.3 0 .5.2.5.5s-.2.5-.5.5zM99.3 169.7H50.7c-.3 0-.5-.2-.5-.5s.2-.5.5-.5h48.7c.3 0 .5.2.5.5s-.3.5-.6.5zM92.4 184.5H50.7c-.3 0-.5-.2-.5-.5s.2-.5.5-.5h41.7c.3 0 .5.2.5.5s-.3.5-.5.5zM106.3 199.3H50.7c-.3 0-.5-.2-.5-.5s.2-.5.5-.5h55.6c.3 0 .5.2.5.5s-.2.5-.5.5zM100.4 214.1H74.2c-.3 0-.5-.2-.5-.5s.2-.5.5-.5h26.1c.3 0 .5.2.5.5s-.2.5-.4.5z" class="st3"/><g><path d="M67 214.1H54.7c-.3 0-.5-.2-.5-.5s.2-.5.5-.5H67c.3 0 .5.2.5.5s-.2.5-.5.5z" class="st3"/></g><g><path d="M30.5 160.7c-1.6 0-3-1.3-3-3s1.3-3 3-3 3 1.3 3 3-1.4 3-3 3zm0-4.9c-1.1 0-2 .9-2 2s.9 2 2 2 2-.9 2-2c-.1-1.2-1-2-2-2z" class="st3"/></g><g><path d="M226.3 194.8c-1.6 0-3-1.3-3-3s1.3-3 3-3 3 1.3 3 3-1.3 3-3 3zm0-5c-1.1 0-2 .9-2 2s.9 2 2 2 2-.9 2-2-.9-2-2-2z" class="st6"/></g><g><path d="M231.5 83.3h-.1l-1-.3c-.3-.1-.4-.4-.3-.6.1-.3.4-.4.6-.3h.1l-.5-1.8V80l.5-1.8-1.8.5h-.3l-1.8-.5.5 1.8v.3l-.5 1.8 1.8-.5c.3-.1.5.1.6.3.1.3-.1.5-.3.6l-2.7.8c-.2.1-.4 0-.5-.1-.1-.1-.2-.3-.1-.5l.8-2.6-.8-2.6c-.1-.2 0-.4.1-.5.1-.1.3-.2.5-.1l2.6.8 2.6-.8c.2-.1.4 0 .5.1s.2.3.1.5l-.8 2.6.8 2.6c.1.2 0 .4-.1.5-.2 0-.3.1-.5.1z" class="st3"/></g><g><path d="M31.9 117.1h-.1l-1-.3c-.3-.1-.4-.4-.3-.6.1-.3.4-.4.6-.3h.1l-.5-1.8v-.3l.5-1.8-1.8.5h-.3l-1.8-.5.5 1.8v.3l-.5 1.8 1.8-.5c.3-.1.5.1.6.3.1.3-.1.5-.3.6l-2.7.8c-.2.1-.4 0-.5-.1-.1-.1-.2-.3-.1-.5l.8-2.6-.8-2.6c-.1-.2 0-.4.1-.5.1-.1.3-.2.5-.1l2.6.8 2.6-.8c.2-.1.4 0 .5.1s.2.3.1.5l-.8 2.6.8 2.6c.1.2 0 .4-.1.5-.2.1-.3.1-.5.1z" class="st5"/></g><g><path d="M30.5 68.8c-.3 0-.5-.2-.5-.5v-2.4c0-.3.2-.5.5-.5s.5.2.5.5v2.4c0 .3-.3.5-.5.5zM30.5 74.7c-.3 0-.5-.2-.5-.5v-2.4c0-.3.2-.5.5-.5s.5.2.5.5v2.4c0 .2-.3.5-.5.5zM34.6 70.5h-2.4c-.3 0-.5-.2-.5-.5s.2-.5.5-.5h2.4c.3 0 .5.2.5.5s-.2.5-.5.5zM28.7 70.5h-2.4c-.3 0-.5-.2-.5-.5s.2-.5.5-.5h2.4c.3 0 .5.2.5.5s-.2.5-.5.5z" class="st6"/></g><g><path d="M227.1 134.2c-.3 0-.5-.2-.5-.5v-2.4c0-.3.2-.5.5-.5s.5.2.5.5v2.4c0 .3-.2.5-.5.5zM227.1 140.1c-.3 0-.5-.2-.5-.5v-2.4c0-.3.2-.5.5-.5s.5.2.5.5v2.4c0 .2-.2.5-.5.5zM231.2 135.9h-2.4c-.3 0-.5-.2-.5-.5s.2-.5.5-.5h2.4c.3 0 .5.2.5.5s-.2.5-.5.5zM225.4 135.9H223c-.3 0-.5-.2-.5-.5s.2-.5.5-.5h2.4c.3 0 .5.2.5.5s-.2.5-.5.5z" class="st5"/></g><g><path d="M27.5 201.7c-.3 0-.5-.2-.5-.5v-2.4c0-.3.2-.5.5-.5s.5.2.5.5v2.4c0 .3-.2.5-.5.5zM27.5 207.6c-.3 0-.5-.2-.5-.5v-2.4c0-.3.2-.5.5-.5s.5.2.5.5v2.4c0 .3-.2.5-.5.5zM31.7 203.5h-2.4c-.3 0-.5-.2-.5-.5s.2-.5.5-.5h2.4c.3 0 .5.2.5.5s-.3.5-.5.5zM25.8 203.5h-2.4c-.3 0-.5-.2-.5-.5s.2-.5.5-.5h2.4c.3 0 .5.2.5.5s-.2.5-.5.5z" class="st4"/></g></svg>

<svg xmlns="http://www.w3.org/2000/svg" id="Layer_1" x="0" y="0" enable-background="new 0 0 256 256" version="1.1" viewBox="0 0 256 256" xml:space="preserve"><style>.st0{fill:#DBFDFF;}
	.st1{fill:#FFFFED;}
	.st2{fill:#FFFFFF;}
	.st3{fill:#48386A;}
	.st4{fill:#9FEAFF;}
	.st5{fill:#FEBE7F;}
	.st6{fill:#FF8584;}</style><path d="M234.6 120.9c4.8-7.7 7.6-16.9 7.6-26.7 0-27.9-22.6-50.5-50.5-50.5-14.1 0-26.9 5.8-36 15.1-8.7-6.9-19.7-11-31.7-11-4.5 0-8.9.6-13.1 1.7-8.9-14.4-24.8-24-43-24C40 25.5 17.4 48.1 17.4 76c0 4.8.7 9.4 1.9 13.8-2.1 5.5-3.2 11.5-3.2 17.7 0 15.9 7.4 30.1 18.9 39.4-12.8 9.2-21.2 24.2-21.2 41.1 0 27.9 22.6 50.5 50.5 50.5 23.4 0 43-15.9 48.8-37.5 7.2 3.9 15.5 6.2 24.2 6.2 1.3 0 2.5-.1 3.8-.2 7.5 18.4 25.6 31.4 46.8 31.4 27.9 0 50.5-22.6 50.5-50.5 0-8.6-2.2-16.7-6-23.8 3.8-7.1 6-15.2 6-23.8.1-6.8-1.3-13.4-3.8-19.4z" class="st0"/><path d="M40 142.2 40 3.8 192.3 3.8 192.3 227.1 40 227.1 40 155.1z" class="st1"/><path d="M217.4 72 217.4 252.2 65.1 252.2 65.1 239.6 204.9 239.6 204.9 28.9 217.4 28.9 217.4 63.9z" class="st2"/><path d="M40 151.8c-.6 0-1-.4-1-1v-2.7c0-.6.4-1 1-1s1 .4 1 1v2.7c0 .6-.5 1-1 1z" class="st3"/><path d="M192.3 228.1H40c-.6 0-1-.4-1-1v-72c0-.6.4-1 1-1s1 .4 1 1v71h150.3V4.8H41v137.4c0 .6-.4 1-1 1s-1-.4-1-1V3.8c0-.6.4-1 1-1h152.3c.6 0 1 .4 1 1v223.3c0 .6-.4 1-1 1z" class="st3"/><path d="M207.9 16.4 207.9 239.6 55.5 239.6 55.5 227.1 195.3 227.1 195.3 16.4z" class="st0"/><path d="M204.9 240.6H52.5c-.6 0-1-.4-1-1v-12.5c0-.6.4-1 1-1h138.8V16.4c0-.6.4-1 1-1h12.5c.6 0 1 .4 1 1v223.3c.1.5-.4.9-.9.9zm-151.4-2h150.3V17.4h-10.5v209.8c0 .6-.4 1-1 1H53.5v10.4z" class="st3"/><path d="M217.4 72 217.4 252.2 65.1 252.2 65.1 239.6 204.9 239.6 204.9 28.9 217.4 28.9 217.4 63.9z" class="st4"/><path d="M217.4 253.2H65.1c-.6 0-1-.4-1-1v-12.5c0-.6.4-1 1-1h138.8V28.9c0-.6.4-1 1-1h12.5c.6 0 1 .4 1 1v35c0 .6-.4 1-1 1s-1-.4-1-1v-34h-10.5v209.7c0 .6-.4 1-1 1H66.1v10.5h150.3V72c0-.6.4-1 1-1s1 .4 1 1v180.2c0 .5-.4 1-1 1zM181.6 39.4h-131c-.6 0-1-.4-1-1v-22c0-.6.4-1 1-1h131c.6 0 1 .4 1 1v22c0 .5-.4 1-1 1zm-130-2h129v-20h-129v20z" class="st3"/><path d="M135.1 21.5 179 21.5 179 33.1 59.2 33.1 59.2 21.5 127.1 21.5z" class="st4"/><path d="M113.4 57.1H125V176.9H113.4z" class="st4" transform="rotate(90 119.168 117.007)"/><path d="M145.8 144.8 179.1 144.8 179.1 209 124.7 209 124.7 144.8 137.7 144.8z" class="st5"/><path d="M83.3 64.8c.7 1.6 1.1 3.3 1.1 5.2 0 7-5.7 12.8-12.8 12.8S58.9 77.1 58.9 70s5.7-12.8 12.8-12.8c3.2 0 6.1 1.2 8.3 3.1l3.3 4.5z" class="st6"/><path d="M176 33.6H56.2c-.3 0-.5-.2-.5-.5V21.5c0-.3.2-.5.5-.5h67.9c.3 0 .5.2.5.5s-.2.5-.5.5H56.7v10.6h118.8V22H132c-.3 0-.5-.2-.5-.5s.2-.5.5-.5h44c.3 0 .5.2.5.5v11.6c0 .3-.2.5-.5.5zM181.7 129h-131c-.6 0-1-.4-1-1v-22c0-.6.4-1 1-1h70.5c.6 0 1 .4 1 1s-.4 1-1 1H51.7v20h129v-20h-52c-.6 0-1-.4-1-1s.4-1 1-1h53c.6 0 1 .4 1 1v22c0 .6-.5 1-1 1z" class="st3"/><path d="M176.1 123.3H56.2c-.3 0-.5-.2-.5-.5v-11.6c0-.3.2-.5.5-.5H176c.3 0 .5.2.5.5v11.6c.1.3-.1.5-.4.5zm-119.4-1h118.8v-10.6H56.7v10.6zM181.7 215.2h-65.5c-.6 0-1-.4-1-1v-74.6c0-.6.4-1 1-1h65.5c.6 0 1 .4 1 1v51.6c0 .6-.4 1-1 1s-1-.4-1-1v-50.6h-63.5v72.6h63.5v-11c0-.6.4-1 1-1s1 .4 1 1v12c0 .6-.5 1-1 1z" class="st3"/><path d="M176.1 209.5h-54.3c-.3 0-.5-.2-.5-.5v-64.2c0-.3.2-.5.5-.5h13c.3 0 .5.2.5.5s-.2.5-.5.5h-12.5v63.2h53.3v-63.2h-32.8c-.3 0-.5-.2-.5-.5s.2-.5.5-.5h33.3c.3 0 .5.2.5.5V209c0 .2-.2.5-.5.5zM68.7 89c-2.9 0-5.6-.6-8.2-1.8-.5-.2-.7-.8-.5-1.3.2-.5.8-.7 1.3-.5 2.3 1.1 4.8 1.6 7.3 1.6 9.4 0 17-7.6 17-17s-7.6-17-17-17-17 7.6-17 17c0 4.7 1.9 9.1 5.3 12.3.4.4.4 1 0 1.4-.4.4-1 .4-1.4 0-3.8-3.6-5.9-8.5-5.9-13.7 0-10.5 8.5-19 19-19s19 8.5 19 19-8.5 19-18.9 19z" class="st3"/><path d="M68.7 83.3c-7.3 0-13.3-5.9-13.3-13.3s5.9-13.3 13.3-13.3c3.2 0 6.3 1.1 8.7 3.2.2.2.2.5.1.7-.2.2-.5.2-.7.1-2.2-1.9-5.1-3-8-3-6.8 0-12.3 5.5-12.3 12.3S62 82.3 68.8 82.3 80.9 76.8 80.9 70c0-1.7-.4-3.4-1.1-5-.1-.3 0-.5.3-.7.3-.1.5 0 .7.3.8 1.7 1.1 3.5 1.1 5.4 0 7.3-5.9 13.3-13.2 13.3zM181.7 53H99.1c-.6 0-1-.4-1-1s.4-1 1-1h82.6c.6 0 1 .4 1 1s-.5 1-1 1zM181.7 89H99.1c-.6 0-1-.4-1-1s.4-1 1-1h82.6c.6 0 1 .4 1 1s-.5 1-1 1zM181.7 71h-78.2c-.6 0-1-.4-1-1s.4-1 1-1h78.2c.6 0 1 .4 1 1s-.5 1-1 1zM99.3 140.1H50.7c-.3 0-.5-.2-.5-.5s.2-.5.5-.5h48.7c.3 0 .5.2.5.5s-.3.5-.6.5zM106.3 154.9H50.7c-.3 0-.5-.2-.5-.5s.2-.5.5-.5h55.6c.3 0 .5.2.5.5s-.2.5-.5.5zM99.3 169.7H50.7c-.3 0-.5-.2-.5-.5s.2-.5.5-.5h48.7c.3 0 .5.2.5.5s-.3.5-.6.5zM92.4 184.5H50.7c-.3 0-.5-.2-.5-.5s.2-.5.5-.5h41.7c.3 0 .5.2.5.5s-.3.5-.5.5zM106.3 199.3H50.7c-.3 0-.5-.2-.5-.5s.2-.5.5-.5h55.6c.3 0 .5.2.5.5s-.2.5-.5.5zM100.4 214.1H74.2c-.3 0-.5-.2-.5-.5s.2-.5.5-.5h26.1c.3 0 .5.2.5.5s-.2.5-.4.5z" class="st3"/><g><path d="M67 214.1H54.7c-.3 0-.5-.2-.5-.5s.2-.5.5-.5H67c.3 0 .5.2.5.5s-.2.5-.5.5z" class="st3"/></g><g><path d="M30.5 160.7c-1.6 0-3-1.3-3-3s1.3-3 3-3 3 1.3 3 3-1.4 3-3 3zm0-4.9c-1.1 0-2 .9-2 2s.9 2 2 2 2-.9 2-2c-.1-1.2-1-2-2-2z" class="st3"/></g><g><path d="M226.3 194.8c-1.6 0-3-1.3-3-3s1.3-3 3-3 3 1.3 3 3-1.3 3-3 3zm0-5c-1.1 0-2 .9-2 2s.9 2 2 2 2-.9 2-2-.9-2-2-2z" class="st6"/></g><g><path d="M231.5 83.3h-.1l-1-.3c-.3-.1-.4-.4-.3-.6.1-.3.4-.4.6-.3h.1l-.5-1.8V80l.5-1.8-1.8.5h-.3l-1.8-.5.5 1.8v.3l-.5 1.8 1.8-.5c.3-.1.5.1.6.3.1.3-.1.5-.3.6l-2.7.8c-.2.1-.4 0-.5-.1-.1-.1-.2-.3-.1-.5l.8-2.6-.8-2.6c-.1-.2 0-.4.1-.5.1-.1.3-.2.5-.1l2.6.8 2.6-.8c.2-.1.4 0 .5.1s.2.3.1.5l-.8 2.6.8 2.6c.1.2 0 .4-.1.5-.2 0-.3.1-.5.1z" class="st3"/></g><g><path d="M31.9 117.1h-.1l-1-.3c-.3-.1-.4-.4-.3-.6.1-.3.4-.4.6-.3h.1l-.5-1.8v-.3l.5-1.8-1.8.5h-.3l-1.8-.5.5 1.8v.3l-.5 1.8 1.8-.5c.3-.1.5.1.6.3.1.3-.1.5-.3.6l-2.7.8c-.2.1-.4 0-.5-.1-.1-.1-.2-.3-.1-.5l.8-2.6-.8-2.6c-.1-.2 0-.4.1-.5.1-.1.3-.2.5-.1l2.6.8 2.6-.8c.2-.1.4 0 .5.1s.2.3.1.5l-.8 2.6.8 2.6c.1.2 0 .4-.1.5-.2.1-.3.1-.5.1z" class="st5"/></g><g><path d="M30.5 68.8c-.3 0-.5-.2-.5-.5v-2.4c0-.3.2-.5.5-.5s.5.2.5.5v2.4c0 .3-.3.5-.5.5zM30.5 74.7c-.3 0-.5-.2-.5-.5v-2.4c0-.3.2-.5.5-.5s.5.2.5.5v2.4c0 .2-.3.5-.5.5zM34.6 70.5h-2.4c-.3 0-.5-.2-.5-.5s.2-.5.5-.5h2.4c.3 0 .5.2.5.5s-.2.5-.5.5zM28.7 70.5h-2.4c-.3 0-.5-.2-.5-.5s.2-.5.5-.5h2.4c.3 0 .5.2.5.5s-.2.5-.5.5z" class="st6"/></g><g><path d="M227.1 134.2c-.3 0-.5-.2-.5-.5v-2.4c0-.3.2-.5.5-.5s.5.2.5.5v2.4c0 .3-.2.5-.5.5zM227.1 140.1c-.3 0-.5-.2-.5-.5v-2.4c0-.3.2-.5.5-.5s.5.2.5.5v2.4c0 .2-.2.5-.5.5zM231.2 135.9h-2.4c-.3 0-.5-.2-.5-.5s.2-.5.5-.5h2.4c.3 0 .5.2.5.5s-.2.5-.5.5zM225.4 135.9H223c-.3 0-.5-.2-.5-.5s.2-.5.5-.5h2.4c.3 0 .5.2.5.5s-.2.5-.5.5z" class="st5"/></g><g><path d="M27.5 201.7c-.3 0-.5-.2-.5-.5v-2.4c0-.3.2-.5.5-.5s.5.2.5.5v2.4c0 .3-.2.5-.5.5zM27.5 207.6c-.3 0-.5-.2-.5-.5v-2.4c0-.3.2-.5.5-.5s.5.2.5.5v2.4c0 .3-.2.5-.5.5zM31.7 203.5h-2.4c-.3 0-.5-.2-.5-.5s.2-.5.5-.5h2.4c.3 0 .5.2.5.5s-.3.5-.5.5zM25.8 203.5h-2.4c-.3 0-.5-.2-.5-.5s.2-.5.5-.5h2.4c.3 0 .5.2.5.5s-.2.5-.5.5z" class="st4"/></g></svg>
